src/assets/flags/pc.svg

<?xml version="1.0" encoding="UTF-8"?>
<svg xmlns="http://www.w3.org/2000/svg" xmlns:xlink="http://www.w3.org/1999/xlink" width="25px" height="px" viewBox="0 0 25 19" version="1.1">
<g id="surface1">
<rect x="0" y="0" width="25" height="19" style="fill:rgb(0%,23.921569%,64.705884%);fill-opacity:1;stroke:none;"/>
<path style=" stroke:none;fill-rule:nonzero;fill:rgb(100%,100%,100%);fill-opacity:1;" d="M 5.878906 10.53125 L 6.179688 10.382812 L 6.132812 10.046875 L 6.367188 10.289062 L 6.664062 10.140625 L 6.511719 10.4375 L 6.742188 10.679688 L 6.414062 10.625 L 6.261719 10.925781 L 6.210938 10.589844 Z M 5.878906 10.53125 "/>
<path style=" stroke:none;fill-rule:nonzero;fill:rgb(100%,100%,100%);fill-opacity:1;" d="M 18.472656 10.402344 L 18.144531 10.460938 L 18.101562 10.796875 L 17.941406 10.5 L 17.613281 10.566406 L 17.839844 10.320312 L 17.683594 10.023438 L 17.984375 10.164062 L 18.210938 9.917969 L 18.171875 10.257812 Z M 18.472656 10.402344 "/>
<path style=" stroke:none;fill-rule:nonzero;fill:rgb(100%,100%,100%);fill-opacity:1;" d="M 18.515625 9.246094 L 18.203125 9.363281 L 18.21875 9.703125 L 18.007812 9.441406 L 17.699219 9.5625 L 17.878906 9.28125 L 17.671875 9.015625 L 17.992188 9.101562 L 18.171875 8.820312 L 18.191406 9.15625 Z M 18.515625 9.246094 "/>
<path style=" stroke:none;fill-rule:nonzero;fill:rgb(100%,100%,100%);fill-opacity:1;" d="M 17.992188 7.007812 L 17.738281 7.226562 L 17.875 7.539062 L 17.585938 7.367188 L 17.335938 7.59375 L 17.40625 7.265625 L 17.121094 7.089844 L 17.453125 7.054688 L 17.523438 6.726562 L 17.660156 7.035156 Z M 17.992188 7.007812 "/>
<path style=" stroke:none;fill-rule:nonzero;fill:rgb(100%,100%,100%);fill-opacity:1;" d="M 18.351562 8.101562 L 18.066406 8.273438 L 18.144531 8.605469 L 17.890625 8.382812 L 17.605469 8.5625 L 17.730469 8.25 L 17.480469 8.027344 L 17.8125 8.054688 L 17.941406 7.742188 L 18.019531 8.074219 Z M 18.351562 8.101562 "/>
<path style=" stroke:none;fill-rule:nonzero;fill:rgb(100%,100%,100%);fill-opacity:1;" d="M 16.722656 5.09375 L 16.5625 5.390625 L 16.796875 5.636719 L 16.46875 5.578125 L 16.3125 5.878906 L 16.265625 5.542969 L 15.9375 5.484375 L 16.234375 5.335938 L 16.1875 5 L 16.421875 5.242188 Z M 16.722656 5.09375 "/>
<path style=" stroke:none;fill-rule:nonzero;fill:rgb(100%,100%,100%);fill-opacity:1;" d="M 14.871094 3.757812 L 14.828125 4.09375 L 15.128906 4.238281 L 14.800781 4.300781 L 14.757812 4.636719 L 14.597656 4.34375 L 14.273438 4.402344 L 14.5 4.15625 L 14.335938 3.863281 L 14.640625 4.003906 Z M 14.871094 3.757812 "/>
<path style=" stroke:none;fill-rule:nonzero;fill:rgb(100%,100%,100%);fill-opacity:1;" d="M 15.855469 4.34375 L 15.753906 4.664062 L 16.023438 4.859375 L 15.691406 4.863281 L 15.589844 5.1875 L 15.484375 4.867188 L 15.152344 4.867188 L 15.417969 4.664062 L 15.3125 4.347656 L 15.585938 4.542969 Z M 15.855469 4.34375 "/>
<path style=" stroke:none;fill-rule:nonzero;fill:rgb(100%,100%,100%);fill-opacity:1;" d="M 17.441406 5.992188 L 17.234375 6.257812 L 17.417969 6.539062 L 17.105469 6.421875 L 16.902344 6.6875 L 16.910156 6.351562 L 16.601562 6.234375 L 16.921875 6.140625 L 16.929688 5.804688 L 17.121094 6.082031 Z M 17.441406 5.992188 "/>
<path style=" stroke:none;fill-rule:nonzero;fill:rgb(100%,100%,100%);fill-opacity:1;" d="M 12.675781 3.167969 L 12.75 3.496094 L 13.082031 3.523438 L 12.796875 3.699219 L 12.875 4.027344 L 12.621094 3.8125 L 12.335938 3.984375 L 12.464844 3.671875 L 12.210938 3.453125 L 12.542969 3.476562 Z M 12.675781 3.167969 "/>
<path style=" stroke:none;fill-rule:nonzero;fill:rgb(100%,100%,100%);fill-opacity:1;" d="M 10.414062 3.398438 L 10.597656 3.679688 L 10.917969 3.585938 L 10.714844 3.851562 L 10.898438 4.132812 L 10.589844 4.019531 L 10.382812 4.28125 L 10.390625 3.945312 L 10.078125 3.832031 L 10.398438 3.734375 Z M 10.414062 3.398438 "/>
<path style=" stroke:none;fill-rule:nonzero;fill:rgb(100%,100%,100%);fill-opacity:1;" d="M 11.535156 3.179688 L 11.664062 3.488281 L 11.996094 3.457031 L 11.75 3.679688 L 11.882812 3.992188 L 11.597656 3.820312 L 11.347656 4.042969 L 11.414062 3.714844 L 11.128906 3.546875 L 11.460938 3.507812 Z M 11.535156 3.179688 "/>
<path style=" stroke:none;fill-rule:nonzero;fill:rgb(100%,100%,100%);fill-opacity:1;" d="M 8.375 4.417969 L 8.644531 4.617188 L 8.914062 4.414062 L 8.816406 4.738281 L 9.085938 4.933594 L 8.753906 4.9375 L 8.652344 5.257812 L 8.546875 4.941406 L 8.214844 4.945312 L 8.480469 4.738281 Z M 8.375 4.417969 "/>
<path style=" stroke:none;fill-rule:nonzero;fill:rgb(100%,100%,100%);fill-opacity:1;" d="M 6.824219 6.101562 L 7.144531 6.191406 L 7.328125 5.90625 L 7.34375 6.242188 L 7.667969 6.328125 L 7.359375 6.453125 L 7.375 6.789062 L 7.164062 6.527344 L 6.855469 6.652344 L 7.03125 6.363281 Z M 6.824219 6.101562 "/>
<path style=" stroke:none;fill-rule:nonzero;fill:rgb(100%,100%,100%);fill-opacity:1;" d="M 7.523438 5.1875 L 7.824219 5.335938 L 8.054688 5.085938 L 8.011719 5.421875 L 8.316406 5.566406 L 7.992188 5.632812 L 7.945312 5.964844 L 7.785156 5.671875 L 7.457031 5.734375 L 7.683594 5.484375 Z M 7.523438 5.1875 "/>
<path style=" stroke:none;fill-rule:nonzero;fill:rgb(100%,100%,100%);fill-opacity:1;" d="M 9.347656 3.816406 L 9.578125 4.058594 L 9.878906 3.910156 L 9.722656 4.207031 L 9.957031 4.449219 L 9.632812 4.394531 L 9.472656 4.691406 L 9.425781 4.359375 L 9.097656 4.300781 L 9.394531 4.148438 Z M 9.347656 3.816406 "/>
<path style=" stroke:none;fill-rule:nonzero;fill:rgb(100%,100%,100%);fill-opacity:1;" d="M 13.800781 3.363281 L 13.8125 3.699219 L 14.136719 3.789062 L 13.824219 3.910156 L 13.84375 4.246094 L 13.632812 3.988281 L 13.324219 4.105469 L 13.503906 3.820312 L 13.292969 3.5625 L 13.617188 3.644531 Z M 13.800781 3.363281 "/>
<path style=" stroke:none;fill-rule:nonzero;fill:rgb(100%,100%,100%);fill-opacity:1;" d="M 5.953125 8.230469 L 6.285156 8.199219 L 6.359375 7.867188 L 6.492188 8.175781 L 6.824219 8.140625 L 6.578125 8.367188 L 6.710938 8.675781 L 6.421875 8.507812 L 6.175781 8.734375 L 6.242188 8.402344 Z M 5.953125 8.230469 "/>
<path style=" stroke:none;fill-rule:nonzero;fill:rgb(100%,100%,100%);fill-opacity:1;" d="M 5.816406 9.375 L 6.136719 9.285156 L 6.148438 8.945312 L 6.335938 9.226562 L 6.65625 9.132812 L 6.453125 9.398438 L 6.636719 9.679688 L 6.324219 9.566406 L 6.121094 9.832031 L 6.128906 9.492188 Z M 5.816406 9.375 "/>
<path style=" stroke:none;fill-rule:nonzero;fill:rgb(100%,100%,100%);fill-opacity:1;" d="M 6.609375 12.710938 L 6.839844 12.46875 L 6.679688 12.171875 L 6.980469 12.3125 L 7.207031 12.066406 L 7.167969 12.398438 L 7.46875 12.546875 L 7.144531 12.609375 L 7.101562 12.945312 L 6.9375 12.648438 Z M 6.609375 12.710938 "/>
<path style=" stroke:none;fill-rule:nonzero;fill:rgb(100%,100%,100%);fill-opacity:1;" d="M 8.050781 14.492188 L 8.179688 14.183594 L 7.925781 13.960938 L 8.257812 13.988281 L 8.386719 13.675781 L 8.464844 14.003906 L 8.796875 14.03125 L 8.515625 14.207031 L 8.59375 14.535156 L 8.335938 14.320312 Z M 8.050781 14.492188 "/>
<path style=" stroke:none;fill-rule:nonzero;fill:rgb(100%,100%,100%);fill-opacity:1;" d="M 7.25 13.667969 L 7.433594 13.386719 L 7.222656 13.125 L 7.546875 13.210938 L 7.726562 12.925781 L 7.746094 13.261719 L 8.066406 13.347656 L 7.757812 13.472656 L 7.777344 13.808594 L 7.5625 13.546875 Z M 7.25 13.667969 "/>
<path style=" stroke:none;fill-rule:nonzero;fill:rgb(100%,100%,100%);fill-opacity:1;" d="M 6.148438 11.65625 L 6.417969 11.457031 L 6.3125 11.132812 L 6.582031 11.328125 L 6.851562 11.128906 L 6.753906 11.449219 L 7.023438 11.644531 L 6.691406 11.652344 L 6.59375 11.972656 L 6.480469 11.652344 Z M 6.148438 11.65625 "/>
<path style=" stroke:none;fill-rule:nonzero;fill:rgb(100%,100%,100%);fill-opacity:1;" d="M 6.292969 7.125 L 6.625 7.15625 L 6.753906 6.839844 L 6.832031 7.171875 L 7.167969 7.195312 L 6.882812 7.375 L 6.957031 7.703125 L 6.703125 7.484375 L 6.421875 7.660156 L 6.546875 7.347656 Z M 6.292969 7.125 "/>
<path style=" stroke:none;fill-rule:nonzero;fill:rgb(100%,100%,100%);fill-opacity:1;" d="M 8.984375 15.160156 L 9.054688 14.832031 L 8.765625 14.660156 L 9.097656 14.625 L 9.167969 14.296875 L 9.304688 14.601562 L 9.632812 14.570312 L 9.386719 14.796875 L 9.523438 15.101562 L 9.234375 14.9375 Z M 8.984375 15.160156 "/>
<path style=" stroke:none;fill-rule:nonzero;fill:rgb(100%,100%,100%);fill-opacity:1;" d="M 10.019531 15.648438 L 10.03125 15.308594 L 9.714844 15.195312 L 10.039062 15.101562 L 10.046875 14.761719 L 10.234375 15.039062 L 10.554688 14.949219 L 10.351562 15.214844 L 10.539062 15.492188 L 10.222656 15.382812 Z M 10.019531 15.648438 "/>
<path style="fill:none;stroke-width:13.7;stroke-linecap:butt;stroke-linejoin:miter;stroke:rgb(0%,68.235296%,78.039217%);stroke-opacity:1;stroke-miterlimit:4;" d="M 444.9 313.026316 C 415.5 368.289474 355.1 399.671053 293 391.973684 " transform="matrix(0.0390625,0,0,0.0395833,0,0)"/>
<path style=" stroke:none;fill-rule:nonzero;fill:rgb(100%,100%,100%);fill-opacity:1;" d="M 18.527344 11.417969 C 18.527344 11.417969 17.539062 10.972656 15.546875 10.964844 C 13.554688 10.957031 11.4375 11.515625 10.269531 11.5 C 9.097656 11.488281 8.753906 11.488281 8.054688 11.351562 C 8.054688 11.351562 9.109375 11.707031 10.234375 11.8125 C 11.355469 11.917969 13.953125 11.398438 15.25 11.316406 C 16.578125 11.234375 17.609375 11.234375 18.523438 11.417969 "/>
<path style=" stroke:none;fill-rule:nonzero;fill:rgb(0%,68.235296%,78.039217%);fill-opacity:1;" d="M 10.742188 12 C 10.742188 12 11.492188 12.042969 12.929688 11.882812 C 14.375 11.722656 15.390625 11.511719 16.527344 11.480469 C 17.664062 11.449219 18.917969 11.652344 19.183594 11.71875 C 19.183594 11.71875 17.289062 11.667969 16.496094 11.785156 C 15.703125 11.898438 13.644531 12.160156 12.5625 12.1875 C 11.480469 12.214844 11.105469 12.0625 10.742188 12 M 7.597656 10.902344 C 7.597656 10.902344 9.589844 11.441406 11.394531 11.085938 C 13.4375 10.683594 14.636719 10.691406 15.550781 10.691406 C 16.464844 10.683594 17.421875 10.917969 17.421875 10.917969 C 17.421875 10.917969 13.671875 6.949219 9.746094 4.847656 C 9.746094 4.847656 9.453125 8.195312 7.597656 10.902344 "/>
<path style=" stroke:none;fill-rule:nonzero;fill:rgb(100%,100%,100%);fill-opacity:1;" d="M 10.710938 7.816406 C 10.710938 7.816406 10.65625 7.609375 10.386719 7.640625 C 10.386719 7.640625 10.558594 7.558594 10.636719 7.601562 C 10.714844 7.644531 10.730469 7.65625 10.714844 7.816406 M 10.058594 7.445312 C 10.058594 7.445312 10.117188 7.425781 10.144531 7.433594 C 10.144531 7.433594 10.183594 7.5625 10.269531 7.613281 C 10.269531 7.613281 10.121094 7.601562 10.058594 7.445312 M 10.925781 7.644531 C 10.839844 7.535156 10.71875 7.46875 10.585938 7.453125 C 10.515625 7.453125 10.351562 7.59375 10.351562 7.59375 C 10.3125 7.511719 10.332031 7.457031 10.332031 7.457031 C 10.410156 7.464844 10.476562 7.496094 10.476562 7.496094 C 10.445312 7.394531 10.398438 7.347656 10.398438 7.347656 C 10.554688 7.308594 10.742188 7.445312 10.742188 7.445312 C 10.640625 7.300781 10.484375 7.207031 10.3125 7.175781 C 10.265625 7.171875 10.207031 7.238281 10.207031 7.238281 C 9.902344 7.238281 9.820312 7.410156 9.820312 7.410156 C 9.949219 7.613281 10.210938 7.660156 10.210938 7.660156 C 9.75 7.609375 9.761719 7.976562 9.761719 7.976562 L 10.1875 7.75 C 10.023438 8.703125 9.367188 9.136719 9.3125 9.1875 C 9.257812 9.242188 9.292969 9.304688 9.371094 9.3125 C 9.414062 9.3125 9.46875 9.355469 9.613281 9.179688 C 9.964844 8.789062 10.1875 8.300781 10.253906 7.777344 L 10.261719 7.785156 C 10.308594 7.902344 10.277344 8 10.285156 8.074219 C 10.292969 8.148438 10.457031 8.3125 10.457031 8.3125 C 10.457031 8.3125 10.546875 8.132812 10.535156 8.03125 C 10.515625 7.925781 10.320312 7.730469 10.320312 7.730469 C 10.625 7.671875 10.640625 8.191406 10.640625 8.191406 C 10.757812 8.050781 10.734375 7.902344 10.734375 7.902344 C 10.734375 7.902344 10.980469 7.71875 10.925781 7.648438 "/>
</g>
</svg>

<svg xmlns="http://www.w3.org/2000/svg" width="25" height="px" viewBox="0 0 25 19"><path d="M0 0h25v19H0z" style="fill:#003da5;fill-opacity:1;stroke:none"/><path d="m5.879 10.531.3-.148-.046-.336.234.242.297-.148-.152.297.23.242-.328-.055-.152.3-.051-.335ZM18.473 10.402l-.328.059-.043.336-.16-.297-.329.066.227-.246-.156-.297.3.141.227-.246-.04.34ZM18.516 9.246l-.313.117.016.34-.211-.262-.309.121.18-.28-.207-.266.32.086.18-.282.02.336ZM17.992 7.008l-.254.219.137.312-.29-.172-.25.227.071-.328-.285-.176.332-.035.07-.328.137.308ZM18.352 8.102l-.286.171.079.332-.254-.222-.286.18.125-.313-.25-.223.332.028.13-.313.078.332ZM16.723 5.094l-.16.297.234.246-.328-.059-.157.3-.046-.335-.328-.059.296-.148L16.187 5l.235.242ZM14.871 3.758l-.043.336.3.144-.327.063-.043.336-.16-.293-.325.058.227-.246-.164-.293.305.14ZM15.855 4.344l-.101.32.27.195-.333.004-.101.324-.106-.32h-.332l.266-.203-.105-.316.273.195ZM17.441 5.992l-.207.266.184.281-.313-.117-.203.266.008-.336-.308-.118.32-.093.008-.336.191.277ZM12.676 3.168l.074.328.332.027-.285.176.078.328-.254-.215-.285.172.129-.312-.254-.219.332.024ZM10.414 3.398l.184.282.32-.094-.203.266.183.28-.308-.112-.207.261.008-.336-.313-.113.32-.098ZM11.535 3.18l.13.308.331-.031-.246.223.133.312-.285-.172-.25.223.066-.328-.285-.168.332-.04ZM8.375 4.418l.27.2.27-.204-.099.324.27.196-.332.003-.102.32-.105-.316-.332.004.265-.207ZM6.824 6.102l.32.09.184-.286.016.336.324.086-.309.125.016.336-.21-.262-.31.125.176-.289ZM7.523 5.188l.301.148.23-.25-.042.336.304.144-.324.067-.047.332-.16-.293-.328.062.227-.25ZM9.348 3.816l.23.243.3-.149-.155.297.234.242-.324-.054-.16.296-.047-.332-.328-.058.297-.153ZM13.8 3.363l.012.336.325.09-.313.121.02.336-.211-.258-.309.117.18-.285-.211-.257.324.082ZM5.953 8.23l.332-.03.074-.333.133.309.332-.035-.246.226.133.309-.29-.168-.245.226.066-.332ZM5.816 9.375l.32-.09.012-.34.188.282.32-.094-.203.265.184.282-.313-.114-.203.266.008-.34ZM6.61 12.71l.23-.241-.16-.297.3.14.227-.246-.039.332.3.149-.323.062-.043.336-.165-.297ZM8.05 14.492l.13-.308-.254-.223.332.027.129-.312.078.328.332.027-.281.176.078.328-.258-.215ZM7.25 13.668l.184-.281-.211-.262.324.086.18-.285.02.336.32.086-.31.125.02.336-.215-.262ZM6.148 11.656l.27-.199-.106-.324.27.195.27-.2-.098.321.27.196-.333.007-.097.32-.114-.32ZM6.293 7.125l.332.031.129-.316.078.332.336.023-.285.18.074.328-.254-.219-.281.176.125-.312ZM8.984 15.16l.07-.328-.288-.172.332-.035.07-.328.137.305.328-.032-.246.227.136.305-.289-.165ZM10.02 15.648l.011-.34-.316-.113.324-.093.008-.34.187.277.32-.09-.202.266.187.277-.316-.11Zm0 0" style="stroke:none;fill-rule:nonzero;fill:#fff;fill-opacity:1"/><path d="M444.9 313.026c-29.4 55.263-89.8 86.645-151.9 78.948" style="fill:none;stroke-width:13.7;stroke-linecap:butt;stroke-linejoin:miter;stroke:#00aec7;stroke-opacity:1;stroke-miterlimit:4" transform="scale(.03906 .03958)"/><path d="M18.527 11.418s-.988-.445-2.98-.453-4.11.55-5.277.535c-1.172-.012-1.516-.012-2.215-.148 0 0 1.054.355 2.18.46 1.12.106 3.718-.414 5.015-.496 1.328-.082 2.36-.082 3.273.102" style="stroke:none;fill-rule:nonzero;fill:#fff;fill-opacity:1"/><path d="M10.742 12s.75.043 2.188-.117c1.445-.16 2.46-.371 3.597-.403 1.137-.03 2.391.172 2.657.239 0 0-1.895-.051-2.688.066-.793.113-2.851.375-3.933.402-1.083.028-1.458-.124-1.82-.187m-3.145-1.098s1.992.54 3.797.184c2.043-.402 3.242-.395 4.156-.395.914-.007 1.87.227 1.87.227s-3.75-3.969-7.675-6.07c0 0-.293 3.347-2.148 6.054" style="stroke:none;fill-rule:nonzero;fill:#00aec7;fill-opacity:1"/><path d="M10.71 7.816s-.054-.207-.323-.175c0 0 .172-.082.25-.04.078.044.093.055.078.215m-.656-.37s.058-.02.086-.012c0 0 .039.128.125.18 0 0-.149-.012-.211-.169m.867.2a.5.5 0 0 0-.34-.192c-.07 0-.234.14-.234.14-.04-.081-.02-.136-.02-.136.078.008.145.04.145.04-.032-.102-.079-.15-.079-.15.157-.038.344.098.344.098a.67.67 0 0 0-.43-.27c-.046-.003-.105.063-.105.063-.305 0-.387.172-.387.172.13.203.39.25.39.25-.46-.05-.448.317-.448.317l.425-.227c-.164.953-.82 1.387-.874 1.438-.055.054-.02.117.058.124.043 0 .098.043.242-.132.352-.39.575-.88.64-1.403l.009.008c.047.117.015.215.023.29.008.073.172.238.172.238s.09-.18.078-.282c-.02-.105-.215-.3-.215-.3.305-.06.32.46.32.46.118-.14.094-.289.094-.289s.246-.183.192-.254" style="stroke:none;fill-rule:nonzero;fill:#fff;fill-opacity:1"/></svg>
